images/cloud-4.svg

<svg height="98" viewBox="0 0 395 98" width="395" xmlns="http://www.w3.org/2000/svg" xmlns:xlink="http://www.w3.org/1999/xlink"><linearGradient id="a" x1="50.001839%" x2="50.001839%" y1="0%" y2="99.988914%"><stop offset="0" stop-color="#fff"/><stop offset=".9" stop-color="#cbe9ff"/></linearGradient><path d="m334.66852 48.0584584c-.650484-14.9125712-16.734516-26.8520435-36.496145-26.8520435-5.569785-.0212774-11.09673.9702994-16.309339 2.9260217-15.469889-14.33678218-46.67858-24.1324366-82.655065-24.1324366-28.988324 0-54.873223 6.35902742-71.952968 16.3285049-4.649146-1.2998972-9.456551-1.9518921-14.285208-1.937403-19.7071189 0-35.6821315 10.3642007-35.6821315 23.1510605.0022331 1.17148.1375524 2.3389422.4033727 3.4800828-21.0771322 2.998448-37.6190471 10.1650285-44.1202521 19.1929643-19.6526089 2.0243146-33.5707841 7.0434558-33.5707841 12.9136058 0 7 19.7870664 12.7868598 45.5229716 13.7609933 12.6789853 6.7646146 32.2770842 11.1101914 54.2917854 11.1101914 24.394964 0 45.828227-5.3341956 58.143813-13.3988619 12.42824 2.951371 26.426363 4.6135541 41.234865 4.6135541 19.38006 0 37.37557-2.8427315 52.274922-7.7061562 13.278594 6.7899637 38.156878 11.3636833 66.65098 11.3636833 42.45952 0 76.880663-10.1396792 76.880663-22.6694257.01453-10.8458355-25.819493-19.9136058-60.33148-22.1443352z" fill="url(#a)" opacity=".4"/></svg>

<?xml version="1.0" encoding="UTF-8"?>
<svg width="395px" height="98px" viewBox="0 0 395 98" version="1.1" xmlns="http://www.w3.org/2000/svg" xmlns:xlink="http://www.w3.org/1999/xlink">
    <!-- Generator: Sketch 59.1 (86144) - https://sketch.com -->
    <title>Asset 3 Copy</title>
    <desc>Created with Sketch.</desc>
    <defs>
        <linearGradient x1="50.0018392%" y1="0%" x2="50.0018392%" y2="99.9889143%" id="linearGradient-1">
            <stop stop-color="#FFFFFF" offset="0%"></stop>
            <stop stop-color="#CBE9FF" offset="90%"></stop>
        </linearGradient>
    </defs>
    <g id="Page-1" stroke="none" stroke-width="1" fill="none" fill-rule="evenodd" opacity="0.5">
        <g id="M&amp;M-Under-Construction-LP:-Desktop-Copy" transform="translate(-949.000000, -386.000000)" fill="url(#linearGradient-1)" fill-rule="nonzero">
            <g id="Asset-3-Copy" transform="translate(949.000000, 386.000000)">
                <path d="M334.66852,48.0584584 C334.018036,33.1458872 317.934004,21.2064149 298.172375,21.2064149 C292.60259,21.1851375 287.075645,22.1767143 281.863036,24.1324366 C266.393147,9.79565442 235.184456,0 199.207971,0 C170.219647,0 144.334748,6.35902742 127.255003,16.3285049 C122.605857,15.0286077 117.798452,14.3766128 112.969795,14.3911019 C93.2626761,14.3911019 77.2876635,24.7553026 77.2876635,37.5421624 C77.2898966,38.7136424 77.4252159,39.8811046 77.6910362,41.0222452 C56.613904,44.0206932 40.0719891,51.1872737 33.5707841,60.2152095 C13.9181752,62.2395241 0,67.2586653 0,73.1288153 C0,80.1288153 19.7870664,85.9156751 45.5229716,86.8898086 C58.2019569,93.6544232 77.8000558,98 99.814757,98 C124.209721,98 145.642984,92.6658044 157.95857,84.6011381 C170.38681,87.5525091 184.384933,89.2146922 199.193435,89.2146922 C218.573495,89.2146922 236.569005,86.3719607 251.468357,81.508536 C264.746951,88.2984997 289.625235,92.8722193 318.119337,92.8722193 C360.578857,92.8722193 395,82.7325401 395,70.2027936 C395.01453,59.3569581 369.180507,50.2891878 334.66852,48.0584584 Z" id="Path" opacity="0.8"></path>
            </g>
        </g>
    </g>
</svg>
